svgs/1F44A-1F3FD.svg

<svg xmlns="http://www.w3.org/2000/svg" xmlns:xlink="http://www.w3.org/1999/xlink" preserveAspectRatio="none" viewBox="0 0 72 72"><defs><path id="a" fill="#CC9970" d="M83.75 29.35q-1.7.8-2.25 2.75-1.6.6-2.6-.65-1-4.65-4-6.75-3.25-2.25-8.55-1.45-5.75.85-8.3 3.15-2 1.75-2.65 5.05h-.05q-.35.5-.95.9-1.15.75-2.1.05-.7-1.95-2.4-2.7-1.9-.85-5.3-.5-8.1.85-10.9 5.85-1.2 2.05-1.95 8.15-.75.35-1.4-.1-1.3-2.1-4.95-2.1-4.2 0-7.7 5.1-2.9 4.25-3.2 7.85-.25 2.85.7 12 .9 8.65 1.7 12.5.8 3.5 4.4 5.4 3.6 1.9 7.05.65 3.15-1.15 4-2.5 1.35-2.1-.15-6.7l-.2-.7 1.2.2q.6 4.6 2.3 7.1 2.4 3.5 7.15 3.45 3.05 0 5.35-1.85 2.7-2.2 3.1-6.3l3.85.5.15 1.5q.35 3.95 4.5 6.1 3.3 1.7 7.45 1.7l-3.35 1.1-4.35-.55q-.55.1-1.3.45-1.6.65-2.75 1.65-3.8 3.2-2.4 8.75.85 3.45 4.55 4.7 1.65.55 9.35 1.6 5.6.8 17.95 0 13.75-.85 15.35-3.1 2.9-3 6-7.2 6.2-8.45 7.15-14.65.75-4.7-.55-13.05-1.2-7.9-3.75-16.55-.1-1-1.1-2.6-1.9-3.1-6.05-5.75l-.35-3.3q-.55-4.2-1.5-5.6-2.8-4.15-11.3-4.3-3.25-.05-4.9.75z"/><path id="b" fill="#99674F" d="M82.1 46.65q-.15-1.3-.3-2.3-.3-1.95-.95-3.1-.8-1.45-1.45-.8l-.5.95q.65 11.9.45 23.8-.1 5.95-.3 9.5-.1 6.55-3.85 9.6-1.9 1.6-8 1.9-7.55.15-10.6-4.55-.95-1.5-1.35-3.25l-.2-1.5q-.4-2.4-.7-7.5-.65-10.2-.3-23.75 0-.75-.25-1.4-.45-1.25-1.55-.55l-.55 1.95q-.6 2.4-.75 4.55l-.55 7.9q-.3 9.8.65 19.45-.5 3.95-3.15 6.05-2.25 1.75-5.25 1.75-5.6.05-7.9-4.75-2.5-8.7-2.35-27.2.1-.95.05-1.85-.1-1.75-.9-1.3l-.65.95q-.8 1.65-1.3 5.25l-.35 5.8q-.15 7.4.9 15.45.6 6.05-2.35 6.95-2.65.75-5.4-.3-2.75-1-4.3-3.25 1.55 2.85 3.7 4.6 2.95 2.4 6.65 2.25l2.05-.45q2.2-.65 3.05-1.85 1.9 3.15 7.1 3.85 2.6.35 4.8.05 5.3-.7 7.45-4.85v.05q2.45 4.3 8.65 5.75 3.05.75 5.65.6 10.6 0 13.85-5.85 1.4 2.55 4.55 4 1.6.7 2.9.9 5.9.6 10.2-2.9 2.15-1.75 3.15-3.65 3.5-6.65 3.7-20.15.15-7.9-.95-19.6l-2.8-2q.7 9.6.05 26.35-.25 7.3-1.95 10.9-2.3 4.9-8 5.6-5.4.7-7.95-2.5-.65-1.7-.85-4.5l-.1-2.45q.2-11.55-.3-21.25l-.6-7.35z"/></defs><use transform="scale(.5625)" xlink:href="#a"/><use transform="scale(.5625)" xlink:href="#b"/></svg>

<svg xmlns="http://www.w3.org/2000/svg" version="1.1" xmlns:xlink="http://www.w3.org/1999/xlink" preserveAspectRatio="none" x="0px" y="0px" width="72px" height="72px" viewBox="0 0 72 72">
<defs>
<g id="Layer0_0_MEMBER_0_FILL">
<path fill="#CC9970" stroke="none" d="
M 83.75 29.35
Q 82.05 30.15 81.5 32.1 79.9 32.7 78.9 31.45 77.9 26.8 74.9 24.7 71.65 22.45 66.35 23.25 60.6 24.1 58.05 26.4 56.05 28.15 55.4 31.45
L 55.35 31.45
Q 55 31.95 54.4 32.35 53.25 33.1 52.3 32.4 51.6 30.45 49.9 29.7 48 28.85 44.6 29.2 36.5 30.05 33.7 35.05 32.5 37.1 31.75 43.2 31 43.55 30.35 43.1 29.05 41 25.4 41 21.2 41 17.7 46.1 14.8 50.35 14.5 53.95 14.25 56.8 15.2 65.95 16.1 74.6 16.9 78.45 17.7 81.95 21.3 83.85 24.9 85.75 28.35 84.5 31.5 83.35 32.35 82 33.7 79.9 32.2 75.3
L 32 74.6 33.2 74.8
Q 33.8 79.4 35.5 81.9 37.9 85.4 42.65 85.35 45.7 85.35 48 83.5 50.7 81.3 51.1 77.2
L 54.95 77.7 55.1 79.2
Q 55.45 83.15 59.6 85.3 62.9 87 67.05 87
L 63.7 88.1 59.35 87.55
Q 58.8 87.65 58.05 88 56.45 88.65 55.3 89.65 51.5 92.85 52.9 98.4 53.75 101.85 57.45 103.1 59.1 103.65 66.8 104.7 72.4 105.5 84.75 104.7 98.5 103.85 100.1 101.6 103 98.6 106.1 94.4 112.3 85.95 113.25 79.75 114 75.05 112.7 66.7 111.5 58.8 108.95 50.15 108.85 49.15 107.85 47.55 105.95 44.45 101.8 41.8
L 101.45 38.5
Q 100.9 34.3 99.95 32.9 97.15 28.75 88.65 28.6 85.4 28.55 83.75 29.35 Z"/>
</g>

<g id="Layer0_0_MEMBER_1_FILL">
<path fill="#99674F" stroke="none" d="
M 82.1 46.65
Q 81.95 45.35 81.8 44.35 81.5 42.4 80.85 41.25 80.05 39.8 79.4 40.45
L 78.9 41.4
Q 79.55 53.3 79.35 65.2 79.25 71.15 79.05 74.7 78.95 81.25 75.2 84.3 73.3 85.9 67.2 86.2 59.65 86.35 56.6 81.65 55.65 80.15 55.25 78.4
L 55.05 76.9
Q 54.65 74.5 54.35 69.4 53.7 59.2 54.05 45.65 54.05 44.9 53.8 44.25 53.35 43 52.25 43.7
L 51.7 45.65
Q 51.1 48.05 50.95 50.2
L 50.4 58.1
Q 50.1 67.9 51.05 77.55 50.55 81.5 47.9 83.6 45.65 85.35 42.65 85.35 37.05 85.4 34.75 80.6 32.25 71.9 32.4 53.4 32.5 52.45 32.45 51.55 32.35 49.8 31.55 50.25
L 30.9 51.2
Q 30.1 52.85 29.6 56.45
L 29.25 62.25
Q 29.1 69.65 30.15 77.7 30.75 83.75 27.8 84.65 25.15 85.4 22.4 84.35 19.65 83.35 18.1 81.1 19.65 83.95 21.8 85.7 24.75 88.1 28.45 87.95
L 30.5 87.5
Q 32.7 86.85 33.55 85.65 35.45 88.8 40.65 89.5 43.25 89.85 45.45 89.55 50.75 88.85 52.9 84.7
L 52.9 84.75
Q 55.35 89.05 61.55 90.5 64.6 91.25 67.2 91.1 77.8 91.1 81.05 85.25 82.45 87.8 85.6 89.25 87.2 89.95 88.5 90.15 94.4 90.75 98.7 87.25 100.85 85.5 101.85 83.6 105.35 76.95 105.55 63.45 105.7 55.55 104.6 43.85
L 101.8 41.85
Q 102.5 51.45 101.85 68.2 101.6 75.5 99.9 79.1 97.6 84 91.9 84.7 86.5 85.4 83.95 82.2 83.3 80.5 83.1 77.7
L 83 75.25
Q 83.2 63.7 82.7 54
L 82.1 46.65 Z"/>
</g>
</defs>

<g id="Layer_1">
<g transform="matrix( 0.5625, 0, 0, 0.5625, 0,0) ">
<use xlink:href="#Layer0_0_MEMBER_0_FILL"/>
</g>

<g transform="matrix( 0.5625, 0, 0, 0.5625, 0,0) ">
<use xlink:href="#Layer0_0_MEMBER_1_FILL"/>
</g>
</g>
</svg>
